X: 161
T: the Hon. Mrs Buchanan's Favorite
C: William Shepherd (17??-1812)
R: jig
Q: "Slow"
B: William Shepherd "2nd Collection" 1800 p.16 #1
F: http://imslp.org/wiki/File:PMLP73094-Shepherd_Collections_HMT.pdf
Z: 2012 John Chambers <jc:trillian.mit.edu>
N: Extra A, note at end of bar 8 deleted.
M: 6/8
L: 1/8
K: D
A, |\
D2TF E2TG | F<AF D2F | TG2B A>FD | C<EE E2A, |\
[1 D2TF E2TG | F<AF D2F | TG2B A>FD | A,<DD D2 :|
[2 .D(FD) .E(GE) | .F(AF) D2F | G2B A>FD A,DD D2 \
|: A |\
Td2f ecA | (B/c/d).B AFD | TG2B AFD | C<EE E2A |
[1 Td2f ecA | (B/c/d).B AFD | TG2B AFD | A,<DD D2 :|\
[2 Td<fd c<ac | (B/c/d).B AFD | TG2B AFD | A,<DD D2 |]
